!!!COM: Unknown
!!!CDT: Unknown
!!!OTL: National Anthem, Serbia and Montenegro
!!!ENC: Davis, Matthew J.
!!Vocal Line Only
**kern
*clefG2
*k[b-]
*F:
*M3/4
=1-
8.f
16a
4cc
4cc
=2
8cc
8cc
8dd
8cc
8b-
8a
=3
8g
8g
4.cc
8b-
=4
4b-
4.a
8r
=5
8.f
16a
4cc
4cc
=6
8cc
8cc
8dd
8cc
8b-
8a
=7
8g
8g
4.cc
8b-
=8
4b-
4.a
8r
=9
8.a
16g
4g
4b-
=10
8.b-
16a
4a
4cc
=11
8.cc
16b-
4b-
4dd
=12
4dd
4cc
4r
==!|:13
8.ff
16ff
8ff
8ee
8dd
8cc
=14
8.dd
16dd
8dd
8cc
8b-
8a
=15
!First Ending
8g
8g
4.cc
8b-
=16
4b-
4a
4r
==:|!17
!Second Ending
8g
8g
4.cc
8e
=18
4g
4f
4r
==|!
*-
